src/assets/tokens/usdc.svg

<svg width="24" height="24" viewBox="0 0 24 24" fill="none" xmlns="http://www.w3.org/2000/svg">
<g clip-path="url(#clip0_2225_26156)">
<g clip-path="url(#clip1_2225_26156)">
<path d="M11.7725 24C14.1009 24 16.377 23.2962 18.313 21.9776C20.2489 20.6591 21.7579 18.7849 22.6489 16.5922C23.5399 14.3995 23.7731 11.9867 23.3188 9.65893C22.8646 7.33116 21.7434 5.19296 20.0969 3.51472C18.4505 1.83649 16.3528 0.693606 14.0692 0.230582C11.7856 -0.23244 9.41851 0.00519878 7.26737 0.913451C5.11621 1.8217 3.27762 3.35977 1.98403 5.33316C0.690445 7.30655 0 9.62663 0 12C0 15.1826 1.24031 18.2348 3.44809 20.4853C5.65587 22.7357 8.65024 24 11.7725 24Z" fill="#2775C9"/>
<path d="M15.305 13.7825C15.305 12.0325 14.2753 11.4425 12.2837 11.16C10.8118 10.94 10.529 10.5825 10.529 9.8725C10.529 9.16248 11.0269 8.71999 11.9792 8.71999C12.8469 8.71999 13.3472 9.0325 13.5527 9.755C13.5745 9.83408 13.6203 9.90378 13.6835 9.95375C13.7466 10.0037 13.8236 10.0314 13.9031 10.0325H14.6645C14.7142 10.0336 14.7635 10.0233 14.809 10.0024C14.8544 9.98147 14.8949 9.95045 14.9274 9.91154C14.9599 9.87263 14.9838 9.82678 14.9972 9.77727C15.0107 9.72774 15.0134 9.67573 15.0053 9.625C14.7636 8.48249 14.0191 7.795 12.8517 7.57999V6.37499C12.8517 6.27554 12.8135 6.18015 12.7455 6.10984C12.6776 6.0395 12.5853 6 12.4892 6H11.7641C11.6679 6 11.5757 6.0395 11.5077 6.10984C11.4397 6.18015 11.4015 6.27554 11.4015 6.37499V7.53748C9.95133 7.74748 9.03528 8.73748 9.03528 10.0075C9.03528 11.65 10.0021 12.2875 12.0227 12.57C13.398 12.8025 13.7895 13.11 13.7895 13.9175C13.7895 14.725 13.1248 15.2675 12.1871 15.2675C10.9229 15.2675 10.4951 14.695 10.3525 13.9525C10.336 13.8673 10.2917 13.7906 10.227 13.735C10.1624 13.6795 10.0813 13.6486 9.99724 13.6475H9.17064C9.12132 13.6472 9.07252 13.658 9.02767 13.6792C8.98282 13.7005 8.94298 13.7316 8.91099 13.7704C8.87898 13.8092 8.85557 13.8548 8.84239 13.904C8.82921 13.9531 8.82657 14.0047 8.83467 14.055C9.04495 15.305 9.8208 16.22 11.4015 16.44V17.625C11.4015 17.7245 11.4397 17.8198 11.5077 17.8902C11.5757 17.9605 11.6679 18 11.7641 18H12.4892C12.5853 18 12.6776 17.9605 12.7455 17.8902C12.8135 17.8198 12.8517 17.7245 12.8517 17.625V16.44C14.3503 16.195 15.305 15.125 15.305 13.7825Z" fill="white"/>
<path d="M9.66762 18.8759C8.16017 18.3611 6.85839 17.4253 5.9386 16.1955C5.01882 14.9656 4.5255 13.501 4.5255 12.0001C4.5255 10.4992 5.01882 9.03464 5.9386 7.80475C6.85839 6.57484 8.16017 5.63912 9.66762 5.1243C9.76426 5.08462 9.84704 5.02036 9.90657 4.93883C9.96606 4.85729 9.99988 4.76178 10.0042 4.66315V3.97995C10.0104 3.91945 9.99958 3.85847 9.97267 3.80315C9.94576 3.74784 9.90377 3.70009 9.85091 3.66473C9.79804 3.62937 9.73615 3.60767 9.67146 3.60174C9.60679 3.59583 9.54157 3.60595 9.48239 3.63104C7.58404 4.1969 5.92731 5.31271 4.75166 6.81715C3.57601 8.32159 2.94238 10.1367 2.94238 12.0001C2.94238 13.8635 3.57601 15.6786 4.75166 17.1831C5.92731 18.6875 7.58404 19.8033 9.48239 20.3691C9.54157 20.3943 9.60679 20.4044 9.67146 20.3984C9.73615 20.3925 9.79804 20.3708 9.85091 20.3355C9.90377 20.3001 9.94576 20.2524 9.97267 20.1971C9.99958 20.1417 10.0104 20.0807 10.0042 20.0202V19.3371C9.99988 19.2384 9.96606 19.1429 9.90657 19.0614C9.84704 18.9798 9.76426 18.9156 9.66762 18.8759Z" fill="white"/>
<path d="M14.6068 3.63104C14.5526 3.60595 14.4928 3.59583 14.4335 3.60174C14.3742 3.60767 14.3175 3.62937 14.269 3.66473C14.2206 3.70009 14.1821 3.74784 14.1574 3.80315C14.1328 3.85847 14.1228 3.91945 14.1285 3.97995V4.66315C14.1325 4.76178 14.1635 4.85729 14.218 4.93883C14.2726 5.02036 14.3484 5.08462 14.437 5.1243C15.8189 5.63912 17.0122 6.57484 17.8553 7.80475C18.6985 9.03464 19.1506 10.4992 19.1506 12.0001C19.1506 13.501 18.6985 14.9656 17.8553 16.1955C17.0122 17.4253 15.8189 18.3611 14.437 18.8759C14.3455 18.9113 14.2669 18.9745 14.2117 19.057C14.1566 19.1395 14.1275 19.2372 14.1285 19.3371V20.0202C14.1228 20.0807 14.1328 20.1417 14.1574 20.1971C14.1821 20.2524 14.2206 20.3001 14.269 20.3355C14.3175 20.3708 14.3742 20.3925 14.4335 20.3984C14.4928 20.4044 14.5526 20.3943 14.6068 20.3691C16.347 19.8033 17.8657 18.6875 18.9434 17.1831C20.021 15.6786 20.6018 13.8635 20.6018 12.0001C20.6018 10.1367 20.021 8.32159 18.9434 6.81715C17.8657 5.31271 16.347 4.1969 14.6068 3.63104Z" fill="white"/>
</g>
</g>
<defs>
<clipPath id="clip0_2225_26156">
<rect width="24" height="24" fill="white"/>
</clipPath>
<clipPath id="clip1_2225_26156">
<rect width="23.545" height="24" fill="white"/>
</clipPath>
</defs>
</svg>

<svg xmlns="http://www.w3.org/2000/svg" width="24" height="24" fill="none"><g clip-path="url(#a)"><g clip-path="url(#b)"><path fill="#2775C9" d="M11.773 24c2.328 0 4.604-.704 6.54-2.022a11.95 11.95 0 0 0 4.336-5.386 12.2 12.2 0 0 0 .67-6.933 12.07 12.07 0 0 0-3.222-6.144A11.7 11.7 0 0 0 14.069.23a11.57 11.57 0 0 0-6.802.682 11.8 11.8 0 0 0-5.283 4.42A12.17 12.17 0 0 0 0 12c0 3.183 1.24 6.235 3.448 8.485A11.66 11.66 0 0 0 11.773 24"/><path fill="#fff" d="M15.305 13.783c0-1.75-1.03-2.34-3.021-2.623-1.472-.22-1.755-.578-1.755-1.287 0-.71.498-1.153 1.45-1.153.868 0 1.368.313 1.574 1.035q.033.122.13.199a.37.37 0 0 0 .22.079h.761a.33.33 0 0 0 .263-.121.35.35 0 0 0 .078-.287c-.241-1.143-.986-1.83-2.153-2.045V6.375a.38.38 0 0 0-.107-.265.36.36 0 0 0-.255-.11h-.725a.36.36 0 0 0-.256.11.38.38 0 0 0-.106.265v1.162c-1.45.21-2.367 1.2-2.367 2.47 0 1.643.967 2.28 2.988 2.563 1.375.232 1.767.54 1.767 1.348 0 .807-.665 1.35-1.603 1.35-1.264 0-1.692-.573-1.835-1.315a.38.38 0 0 0-.125-.218.36.36 0 0 0-.23-.087h-.826a.33.33 0 0 0-.26.122.35.35 0 0 0-.076.285c.21 1.25.986 2.165 2.566 2.385v1.185c0 .1.039.195.107.265s.16.11.256.11h.725c.096 0 .189-.04.256-.11a.38.38 0 0 0 .107-.265V16.44c1.498-.245 2.453-1.315 2.453-2.658"/><path fill="#fff" d="M9.668 18.876c-1.508-.515-2.81-1.45-3.73-2.68A7 7 0 0 1 4.527 12c0-1.5.493-2.965 1.413-4.195s2.221-2.166 3.729-2.68a.56.56 0 0 0 .239-.186.5.5 0 0 0 .097-.276V3.98a.33.33 0 0 0-.031-.177.35.35 0 0 0-.122-.138.39.39 0 0 0-.369-.034c-1.898.566-3.555 1.682-4.73 3.186A8.4 8.4 0 0 0 2.942 12c0 1.864.634 3.679 1.81 5.183 1.175 1.505 2.832 2.62 4.73 3.186a.39.39 0 0 0 .369-.034.35.35 0 0 0 .122-.138.33.33 0 0 0 .031-.177v-.683a.5.5 0 0 0-.097-.276.56.56 0 0 0-.24-.185m4.94-15.245a.33.33 0 0 0-.338.034.35.35 0 0 0-.14.315v.683a.54.54 0 0 0 .308.461 7.2 7.2 0 0 1 3.418 2.68A7.4 7.4 0 0 1 19.151 12a7.4 7.4 0 0 1-1.296 4.195 7.2 7.2 0 0 1-3.418 2.68.5.5 0 0 0-.225.182.5.5 0 0 0-.083.28v.683a.35.35 0 0 0 .14.316.34.34 0 0 0 .338.033 8.6 8.6 0 0 0 4.336-3.186A8.9 8.9 0 0 0 20.602 12a8.9 8.9 0 0 0-1.659-5.183 8.62 8.62 0 0 0-4.336-3.186"/></g></g><defs><clipPath id="a"><path fill="#fff" d="M0 0h24v24H0z"/></clipPath><clipPath id="b"><path fill="#fff" d="M0 0h23.545v24H0z"/></clipPath></defs></svg>
